website/img/icon-service.svg

<svg xmlns:xlink="http://www.w3.org/1999/xlink" clip-rule="evenodd" fill-rule="evenodd" stroke-linejoin="round" stroke-miterlimit="2" viewBox="0 0 185 316" xmlns="http://www.w3.org/2000/svg"><clipPath id="a"><path clip-rule="evenodd" d="m263.462 678.364h184.591v315.325h-184.591z"/></clipPath><g transform="translate(-263.462 -678.364)"><path d="m263.462 678.364h184.591v315.325h-184.591z" fill="none"/><g clip-path="url(#a)" fill="#00bddf" fill-rule="nonzero"><path d="m372.097 688.166c.048-3.934-1.81-7.44-4.71-9.661-.427-.327-1.047-.02-1.047.517v8.333l-6.235 3.831-6.234-3.831v-8.334c0-.536-.62-.844-1.045-.518-2.823 2.159-4.666 5.538-4.713 9.368-.061 4.982 2.925 9.29 7.228 11.154v33.871c-4.202 1.824-7.168 5.976-7.228 10.852-.048 3.934 1.81 7.44 4.711 9.66.426.327 1.047.02 1.047-.517v-8.333l6.234-3.829 6.235 3.829v8.334c0 .536.619.845 1.045.519 2.822-2.159 4.665-5.539 4.712-9.368.061-4.982-2.925-9.29-7.227-11.155v-33.871c4.2-1.824 7.167-5.975 7.227-10.851z" transform="matrix(4.16667 0 0 4.16667 -1101.89 -2147.81)"/><path d="m339.818 748.858h-1.508v-27.573h1.508zm-4.36 0h-1.507v-27.573h1.507zm-4.359 0h-1.507v-27.573h1.507zm9.762-35.725h-3.748v-22.287l1.639-2.595-1.982-9.883h-3.963l-1.982 9.883 1.639 2.595v22.287h-3.747c-.509 0-.921.47-.921 1.05v1.797c0 .581.412 1.05.921 1.05h.208c-.712 1.218-1.129 2.68-1.129 4.253v25.08c0 4.242 3.018 7.683 6.742 7.683h.502c3.723 0 6.742-3.441 6.742-7.683v-25.08c0-1.573-.417-3.035-1.129-4.253h.208c.509 0 .921-.469.921-1.05v-1.797c0-.58-.412-1.05-.921-1.05z" transform="matrix(4.16667 0 0 4.16667 -1101.89 -2147.81)"/></g></g></svg>

<?xml version="1.0" encoding="UTF-8" standalone="no"?>
<!DOCTYPE svg PUBLIC "-//W3C//DTD SVG 1.1//EN" "http://www.w3.org/Graphics/SVG/1.1/DTD/svg11.dtd">
<svg width="100%" height="100%" viewBox="0 0 185 316" version="1.1" xmlns="http://www.w3.org/2000/svg" xmlns:xlink="http://www.w3.org/1999/xlink" xml:space="preserve" xmlns:serif="http://www.serif.com/" style="fill-rule:evenodd;clip-rule:evenodd;stroke-linejoin:round;stroke-miterlimit:2;">
    <g id="Artboard1" transform="matrix(1,0,0,1,-263.462,-678.364)">
        <rect x="263.462" y="678.364" width="184.591" height="315.325" style="fill:none;"/>
        <clipPath id="_clip1">
            <rect x="263.462" y="678.364" width="184.591" height="315.325"/>
        </clipPath>
        <g clip-path="url(#_clip1)">
            <g transform="matrix(4.16667,0,0,4.16667,-1101.89,-2147.81)">
                <path d="M372.097,688.166C372.145,684.232 370.287,680.726 367.387,678.505C366.96,678.178 366.34,678.485 366.34,679.022L366.34,687.355L360.105,691.186L353.871,687.355L353.871,679.021C353.871,678.485 353.251,678.177 352.826,678.503C350.003,680.662 348.16,684.041 348.113,687.871C348.052,692.853 351.038,697.161 355.341,699.025L355.341,732.896C351.139,734.72 348.173,738.872 348.113,743.748C348.065,747.682 349.923,751.188 352.824,753.408C353.25,753.735 353.871,753.428 353.871,752.891L353.871,744.558L360.105,740.729L366.34,744.558L366.34,752.892C366.34,753.428 366.959,753.737 367.385,753.411C370.207,751.252 372.05,747.872 372.097,744.043C372.158,739.061 369.172,734.753 364.87,732.888L364.87,699.017C369.07,697.193 372.037,693.042 372.097,688.166Z" style="fill:rgb(0,189,223);fill-rule:nonzero;"/>
            </g>
            <g transform="matrix(4.16667,0,0,4.16667,-1101.89,-2147.81)">
                <path d="M339.818,748.858L338.31,748.858L338.31,721.285L339.818,721.285L339.818,748.858ZM335.458,748.858L333.951,748.858L333.951,721.285L335.458,721.285L335.458,748.858ZM331.099,748.858L329.592,748.858L329.592,721.285L331.099,721.285L331.099,748.858ZM340.861,713.133L337.113,713.133L337.113,690.846L338.752,688.251L336.77,678.368L332.807,678.368L330.825,688.251L332.464,690.846L332.464,713.133L328.717,713.133C328.208,713.133 327.796,713.603 327.796,714.183L327.796,715.98C327.796,716.561 328.208,717.03 328.717,717.03L328.925,717.03C328.213,718.248 327.796,719.71 327.796,721.283L327.796,746.363C327.796,750.605 330.814,754.046 334.538,754.046L335.04,754.046C338.763,754.046 341.782,750.605 341.782,746.363L341.782,721.283C341.782,719.71 341.365,718.248 340.653,717.03L340.861,717.03C341.37,717.03 341.782,716.561 341.782,715.98L341.782,714.183C341.782,713.603 341.37,713.133 340.861,713.133Z" style="fill:rgb(0,189,223);fill-rule:nonzero;"/>
            </g>
        </g>
    </g>
</svg>
